X:71
T:B071-  The cloak
Q:1/4=120
L:1/4
M:6/4
K:Gmixolydian
G|GGA^F3/2E/2D|GGAB2B/2c/2|dABG3/2A/2B|A(B/2A/2)G^F2G|\
EEed3/2c/2B|cAB/2c/2d2e/2d/2|cdcA2G/2A/2|cB3/2A/2A2E|\
EFG^F3/2E/2D|GA3/2B/2c2d|eA(B/2c/2)d2c|BA3/2G/2G2B|\
ccBA2d|fe3/2d/2d2c/2d/2|eedc3/2c/2 B/2c/2|dB3/2A/2A2":s:"B/2A/2|\
dBc/2d/2e^fg|cd/2c/2BA2^F|GABc2(B|B)A3/2G/2G2|]

